frontend/public/svg/interface/crop.svg

<svg width="159" height="156" viewBox="0 0 159 156" fill="none" xmlns="http://www.w3.org/2000/svg">
<g clip-path="url(#clip0)">
<path d="M7.95163 35.4247C11.6669 35.4981 15.4425 35.476 19.0928 35.4559C20.7243 35.4468 22.355 35.4402 23.9849 35.4363H30.9032C30.917 35.6183 30.9307 35.798 30.9441 35.9752C31.0026 36.7344 31.0586 37.4526 31.0924 38.1715L31.5365 47.4737C32.4169 65.9563 33.2922 84.4378 34.1621 102.919C34.2831 105.519 34.3707 108.171 34.4545 110.734C34.5144 112.554 34.575 114.379 34.6498 116.201C34.8351 120.871 36.8148 122.804 41.4826 122.875C42.6666 122.892 43.8741 122.94 45.0432 122.989C46.6102 123.054 48.2199 123.119 49.8324 123.11C65.9916 123.039 82.1512 122.955 98.3101 122.859L115.935 122.762C116.87 122.756 117.803 122.758 118.751 122.762H119.51C119.523 122.957 119.536 123.13 119.548 123.292C119.589 123.854 119.619 124.263 119.631 124.672C119.695 126.839 119.756 129.006 119.815 131.172C119.958 136.34 120.106 141.685 120.304 146.94C120.338 148.556 120.624 150.157 121.152 151.685C121.569 152.777 122.303 153.718 123.26 154.388C124.218 155.058 125.354 155.426 126.523 155.442C126.602 155.442 126.684 155.442 126.764 155.437C128.034 155.387 129.249 154.913 130.217 154.09C131.184 153.268 131.849 152.144 132.103 150.9C132.389 149.26 132.486 147.594 132.393 145.932V145.819C132.321 141.876 132.229 137.932 132.138 133.989C132.06 130.622 131.986 127.256 131.916 123.89C131.938 123.614 132.004 123.343 132.111 123.087C132.114 123.076 132.118 123.066 132.122 123.055H136.37C140.891 123.055 145.343 123.055 149.801 123.048H150.333C151.305 123.08 152.278 123.026 153.241 122.887C156.271 122.357 158.405 120.152 158.316 117.641C158.232 115.254 156.083 113.347 153.09 113.004C150.852 112.786 148.604 112.687 146.355 112.708C142.909 112.68 139.51 112.685 135.915 112.691C134.649 112.691 133.369 112.692 132.074 112.695C132.058 112.513 132.043 112.35 132.03 112.201C131.985 111.707 131.954 111.376 131.945 111.044C131.76 104.922 131.578 98.8002 131.399 92.6778C130.934 76.9134 130.454 60.6122 129.913 44.578C129.744 40.2349 129.319 35.9055 128.642 31.6124C128.056 27.7365 126.374 26.2388 122.225 25.8924L121.704 25.8449C121.208 25.7975 120.695 25.7494 120.176 25.7435C107.686 25.6066 95.1956 25.471 82.7058 25.3367C69.3831 25.1937 56.0604 25.0491 42.7376 24.9031C42.1921 24.8973 41.6268 24.8531 41.028 24.8069L40.6784 24.7789C40.6784 23.4477 40.6817 22.1287 40.6886 20.8218C40.7023 16.9569 40.7147 13.3058 40.6432 9.58718C40.6178 7.65271 40.3487 5.72917 39.8422 3.86198C39.1829 1.49403 37.3805 0.251847 35.1419 0.616497C32.5671 1.0364 32.4176 3.14245 32.309 4.68035L32.3036 4.75835C32.0435 8.37818 31.8097 11.9993 31.5743 15.6218C31.4356 17.7495 31.2956 19.8769 31.1543 22.0041C31.0958 22.868 31.0149 23.7318 30.9336 24.6041L30.8746 25.2502L30.4558 25.2782C29.9162 25.3152 29.4915 25.3432 29.0656 25.3568C26.8939 25.4244 24.7217 25.4866 22.5492 25.5434C17.7916 25.6734 12.8736 25.8099 8.03674 26.0198C4.04381 26.1934 1.50148 28.0205 1.40069 30.7882C1.36531 31.3072 1.43701 31.828 1.61151 32.3181C1.786 32.8082 2.0596 33.2572 2.41506 33.6372C3.48464 34.7747 5.34887 35.374 7.95163 35.4247ZM117.819 35.1049C118.782 41.5828 120.134 103.804 119.487 112.351L46.1062 113.736L41.0398 35.075C56.1401 34.5719 71.242 34.7669 85.8554 34.956C96.3458 35.0919 107.189 35.2297 117.819 35.1062V35.1049Z" fill="black"/>
</g>
<defs>
<clipPath id="clip0">
<rect width="158" height="156" fill="white" transform="translate(0.777344)"/>
</clipPath>
</defs>
</svg>

<svg xmlns="http://www.w3.org/2000/svg" width="159" height="156" fill="none" viewBox="0 0 159 156"><g clip-path="url(#a)"><path fill="#000" d="M7.952 35.425c3.715.073 7.49.051 11.14.03q2.448-.013 4.893-.019h6.918l.041.54c.059.758.115 1.477.148 2.196l.445 9.302q1.32 27.723 2.625 55.445c.121 2.6.209 5.252.293 7.815.06 1.82.12 3.645.195 5.467.185 4.67 2.165 6.603 6.833 6.674 1.184.017 2.391.065 3.56.114 1.567.065 3.177.13 4.79.121q24.238-.107 48.477-.251l17.625-.097c.935-.006 1.868-.004 2.816 0h.759l.038.53c.041.562.071.971.083 1.38q.096 3.25.184 6.5c.143 5.168.291 10.513.489 15.768.034 1.616.32 3.217.848 4.745a5.84 5.84 0 0 0 5.371 3.757q.12.001.241-.005a5.67 5.67 0 0 0 5.339-4.537c.286-1.64.383-3.306.29-4.968v-.113c-.072-3.943-.164-7.887-.255-11.83q-.117-5.05-.222-10.099c.022-.276.088-.547.195-.803l.011-.032h4.248c4.521 0 8.973 0 13.431-.007h.532c.972.032 1.945-.022 2.908-.161 3.03-.53 5.164-2.735 5.075-5.246-.084-2.387-2.233-4.294-5.226-4.637a63 63 0 0 0-6.735-.296c-3.446-.028-6.845-.023-10.44-.017q-1.899 0-3.841.004l-.044-.494c-.045-.494-.076-.825-.085-1.157q-.277-9.183-.546-18.366c-.465-15.765-.945-32.066-1.486-48.1a111 111 0 0 0-1.271-12.966c-.586-3.875-2.268-5.373-6.417-5.72l-.521-.047a18 18 0 0 0-1.528-.101q-18.735-.206-37.47-.407-19.985-.215-39.968-.434c-.546-.006-1.111-.05-1.71-.096l-.35-.028q0-1.996.01-3.957c.014-3.865.027-7.516-.045-11.235a23 23 0 0 0-.8-5.725c-.66-2.368-2.463-3.61-4.701-3.246-2.575.42-2.724 2.526-2.833 4.064l-.005.078c-.26 3.62-.494 7.241-.73 10.864q-.207 3.192-.42 6.382c-.058.864-.14 1.728-.22 2.6l-.06.646-.418.028c-.54.037-.965.065-1.39.079q-3.258.101-6.517.186c-4.757.13-9.675.267-14.512.477-3.993.173-6.536 2-6.636 4.768a3.8 3.8 0 0 0 1.014 2.85c1.07 1.137 2.934 1.736 5.537 1.787m109.867-.32c.963 6.478 2.315 68.699 1.668 77.246l-73.38 1.385-5.067-78.661c15.1-.503 30.202-.308 44.815-.119 10.49.136 21.334.274 31.964.15z"/></g><defs><clipPath id="a"><path fill="#fff" d="M.777 0h158v156h-158z"/></clipPath></defs></svg>
